svg/part/finger_swipe_fill.svg

<?xml version="1.0" encoding="UTF-8"?>
<svg width="24px" height="24px" viewBox="0 0 24 24" version="1.1" xmlns="http://www.w3.org/2000/svg" xmlns:xlink="http://www.w3.org/1999/xlink">
    <title>finger_swipe_fill</title>
    <g id="Icon" stroke="none" stroke-width="1" fill="none" fill-rule="evenodd">
        <g id="Part" transform="translate(-768.000000, -48.000000)" fill-rule="nonzero">
            <g id="finger_swipe_fill" transform="translate(768.000000, 48.000000)">
                <path d="M24,0 L24,24 L0,24 L0,0 L24,0 Z M12.5934901,23.257841 L12.5819402,23.2595131 L12.5108777,23.2950439 L12.4918791,23.2987469 L12.4918791,23.2987469 L12.4767152,23.2950439 L12.4056548,23.2595131 C12.3958229,23.2563662 12.3870493,23.2590235 12.3821421,23.2649074 L12.3780323,23.275831 L12.360941,23.7031097 L12.3658947,23.7234994 L12.3769048,23.7357139 L12.4804777,23.8096931 L12.4953491,23.8136134 L12.4953491,23.8136134 L12.5071152,23.8096931 L12.6106902,23.7357139 L12.6232938,23.7196733 L12.6232938,23.7196733 L12.6266527,23.7031097 L12.609561,23.275831 C12.6075724,23.2657013 12.6010112,23.2592993 12.5934901,23.257841 L12.5934901,23.257841 Z M12.8583906,23.1452862 L12.8445485,23.1473072 L12.6598443,23.2396597 L12.6498822,23.2499052 L12.6498822,23.2499052 L12.6471943,23.2611114 L12.6650943,23.6906389 L12.6699349,23.7034178 L12.6699349,23.7034178 L12.678386,23.7104931 L12.8793402,23.8032389 C12.8914285,23.8068999 12.9022333,23.8029875 12.9078286,23.7952264 L12.9118235,23.7811639 L12.8776777,23.1665331 C12.8752882,23.1545897 12.8674102,23.1470016 12.8583906,23.1452862 L12.8583906,23.1452862 Z M12.1430473,23.1473072 C12.1332178,23.1423925 12.1221763,23.1452606 12.1156365,23.1525954 L12.1099173,23.1665331 L12.0757714,23.7811639 C12.0751323,23.7926639 12.0828099,23.8018602 12.0926481,23.8045676 L12.108256,23.8032389 L12.3092106,23.7104931 L12.3186497,23.7024347 L12.3186497,23.7024347 L12.3225043,23.6906389 L12.340401,23.2611114 L12.337245,23.2485176 L12.337245,23.2485176 L12.3277531,23.2396597 L12.1430473,23.1473072 Z" id="MingCute"></path>
                <path d="M9.50003,2 C10.8254732,2 11.9100378,3.03153766 11.9946823,4.33562452 L12,4.5 L12,9.10496 L17.4418,9.70959 C19.3999767,9.92716733 20.8972853,11.5344037 20.9949302,13.4824096 L21,13.6851 L21,14 C21,18.3349358 17.5521834,21.8645437 13.2491805,21.9961932 L13,22 L12.3263,22 C9.39078406,22 6.69937526,20.3933281 5.30200452,17.8288441 L5.17085,17.5777 L2.32921,11.8944 C1.96875,11.1735 2.23578,10.2109 3.07624,9.86637 C4.11856,9.43909 5.10996,9.35949 6.13061,9.87812 C6.35282,9.991055 6.57027688,10.12982 6.78548234,10.2918753 L7.00003,10.4616 L7.00003,4.5 C7.00003,3.11929 8.11932,2 9.50003,2 Z M4.48832,3.45058 C4.96287,3.16805 5.5766,3.32371 5.85913,3.79826 C6.14166,4.27281 5.986,4.88654 5.51145,5.16907 C4.91062,5.52678 4.47199,5.89858 4.18858,6.17439 C4.09824,6.26230333 4.00927778,6.35276333 3.92563111,6.44763667 L3.80464,6.59349 C3.47832,7.03583 2.85543,7.13216 2.41071,6.80789 C1.96981,6.48639 1.87094,5.85029 2.19256,5.40977 C2.36921,5.16838 2.57994,4.94913 2.79374,4.74107 C3.17118,4.37376 3.73256,3.90053 4.48832,3.45058 Z M14.3989,2.88068 C15.533,3.37422 16.3707,3.98767 16.9299,4.48439 C17.2454,4.76473 17.5579,5.06824 17.8079,5.41067 C18.1333,5.85692 18.0353,6.48246 17.5891,6.80785 C17.1784231,7.10726846 16.6176112,7.03847296 16.2748378,6.68587358 L16.128056,6.51098474 L16.128056,6.51098474 L16.0311,6.4009825 L16.0311,6.4009825 L15.891472,6.25410426 C15.864634,6.22693214 15.83601,6.19850896 15.805596,6.16897744 L15.6016,5.97963 L15.6016,5.97963 C15.1713,5.59741 14.509,5.10976 13.6009,4.71455 C13.0944,4.49418 12.8626,3.905 13.0829,3.39859 C13.3033,2.89218 13.8925,2.6603 14.3989,2.88068 Z" id="形状" fill="#09244B"></path>
            </g>
        </g>
    </g>
</svg>

<svg xmlns="http://www.w3.org/2000/svg" width="24" height="24"><g fill="none" fill-rule="nonzero"><path d="M24 0v24H0V0h24ZM12.593 23.258l-.011.002-.071.035-.02.004-.014-.004-.071-.035c-.01-.004-.019-.001-.024.005l-.004.01-.017.428.005.02.01.013.104.074.015.004.012-.004.104-.074.012-.016.004-.017-.017-.427c-.002-.01-.009-.017-.017-.018Zm.265-.113-.013.002-.185.093-.01.01-.003.011.018.43.005.012.008.007.201.093c.012.004.023 0 .029-.008l.004-.014-.034-.614c-.003-.012-.01-.02-.02-.022Zm-.715.002a.023.023 0 0 0-.027.006l-.006.014-.034.614c0 .012.007.02.017.024l.015-.002.201-.093.01-.008.004-.011.017-.43-.003-.012-.01-.01-.184-.092Z"/><path fill="#09244B" d="M9.5 2a2.5 2.5 0 0 1 2.495 2.336L12 4.5v4.605l5.442.605a4 4 0 0 1 3.553 3.772l.005.203V14a8 8 0 0 1-7.75 7.996L13 22h-.674a8 8 0 0 1-7.024-4.171l-.131-.251-2.842-5.684c-.36-.72-.093-1.683.747-2.028 1.043-.427 2.034-.507 3.055.012.222.113.44.252.654.414l.215.17V4.5A2.5 2.5 0 0 1 9.5 2ZM4.488 3.45a1 1 0 1 1 1.023 1.72c-.6.357-1.039.729-1.322 1.004a4.97 4.97 0 0 0-.263.274l-.121.145a1 1 0 0 1-1.394.215 1.01 1.01 0 0 1-.218-1.398 5.41 5.41 0 0 1 .6-.669c.378-.367.94-.84 1.695-1.29Zm9.91-.57a9.56 9.56 0 0 1 2.532 1.604c.315.28.628.584.878.927a1 1 0 0 1-.219 1.397c-.41.3-.971.23-1.314-.122l-.147-.175-.097-.11-.14-.147a5.785 5.785 0 0 0-.085-.085l-.204-.19A7.56 7.56 0 0 0 13.6 4.716a1 1 0 1 1 .798-1.834Z"/></g></svg>
